X: 1098
T: The Luck Penny
R:double jig
N:"collected by F.O'Neill"
B:O'Neill's 1098
Z:Transcribed by henrik.norbeck@mailbox.swipnet.se
M:6/8
L:1/8
K:G
(G/A/)|BAG AGF|DGE FGA|BAG Bcd|cAG F2(d/c/)|
BAG AGF|GBd gag|fed gdB|cAF G2:|
d|dgf gfg|abg fed|bag afd|def g2a|
bag agf|gbg fed|def gdB|cAF G2:|
(B/c/)|dBG GFG|BGB dBG|cAF FEF|AFA cAF|
dBG GFG|gbg fed|def gdB|cAF G2:|


